X:1
T:F minor Daniel Belknap, 1802
T:Isaac Watts, 1719 (Psalm 89, Last Part)    88. 88. 88.
T:Durham
T:Transcribed from Daniel Belknap's The Village Compilation, 1806.
%%score [ 1 2 3 4 ]
L:1/8
Q:1/4=120
M:4/4
K:Ab
V:1 treble nm="Tr." snm="Tr."
V:2 treble nm="C." snm="C."
V:3 treble-8 nm="T." snm="T."
V:4 bass nm="B." snm="B."
V:1
 c4- | c4 A2 AB | c2 c2 d2 B2 | c8 | c4 c2 d2 | e2 f2 e4 | e4 e4- | e4 c4 | f2 ed c2 c2 | d4 c4 | %10
w: 1.~Think,|* migh- ty *|God, on fee- ble|man;|How few his|hours! How short|his span!|* Short|from the * cra- dle|to the|
 c8 | z4 c4 | c2 c2 c2 =B2 | c2 d2 e2 e2 | f2 f2 f2 e2 | (e3 d c2) B2 | B6 AB | c2 c2 cB AB | %18
w: grave;|Who|can se- cure his|vi- tal breath A-|gainst the bold de-|mands~ _ _ of|death, With *|skill to fly, * or *|
 c2 d2 e2 ed | c2 f2 f2 ed | c4 c4 | c8 |] %22
w: power to save? With *|skill to fly, or *|power to|save?|
V:2
 F4- | F4 F2 F2 | F2 GA B2 G2 | A8 | A4 G2 G2 | A2 A2 (G2 E2) | A4 G4- | G4 E4 | A2 AG F2 F2 | %9
w: 2.~Lord,|* shall it|be for- * ev- er|said,|"The race of|man was on- *|ly made|* For|sick- ness, * sor- row,|
 F4 =E4 | F8 | z4 F4 | A2 A2 A2 A2 | G2 G2 G2 A2 | A2 A2 A2 E2 | (A3 B G2) F2 | G6 FG | %17
w: and the|dust?"|Are|not thy ser- vants|day by day Sent|to their graves, and|turned~ _ _ to|clay? Lord, *|
 A2 A2 A2 A2 | G2 G2 G2 G2 | F2 F2 F2 F2 | =E4 E4 | F8 |] %22
w: where's thy kind- ness|to the just? Lord,|where's thy kind- ness|to the|just?|
V:3
 c4- | c4 c2 c2 | c2 e2 f2 e2 | e8 | f4 e2 d2 | c2 c2 B4 | A4 B4- | B4 c4 | c2 cB A2 c2 | %9
w: 3.~Hast|* thou not|pro- mised to thy|Son|And all his|seed a heaven-|ly crown?|* But|flesh and * sense in-|
 (B2 A2) G4 | F8 | z4 c4 | f2 e2 e2 f2 | e2 d2 c2 F2 | A2 A2 A2 B2 | (c3 B c2) =d2 | e6 c2 | %17
w: dulge * des-|pair;|For|ev- er bles- sed|be the Lord, That|faith can read his|ho- * * ly|word, And|
 f2 f2 f2 cd | e2 d2 c2 e2 | f2 c2 d2 cB | A4 G4 | F8 |] %22
w: find a re- sur- *|rec- tion there, And|find a re- sur- *|rec- tion|there.|
V:4
 F,4- | F,4 F,2 F,2 | F,2 C2 B,2 E,2 | A,8 | F,4 C2 B,2 | A,2 F,2 G,4 | A,4 E,4- | E,4 A,4 | %8
w: 4.~For-|* ev- er|bles- sed be the|Lord,|Who gives his|saints a long|re- ward|* For|
 F,2 F,2 F,2 F,2 | B,,4 C,4 | F,8 | z4 F,4 | F,2 A,2 A,2 F,2 | C,2 C,2 C,2 C,2 | F,2 F,2 F,2 G,2 | %15
w: all their toil, re-|proach, and|pain:|Let|all be- low and|all a- bove Join|to pro- claim thy|
 (A,3 G, A,2) B,2 | E,6 A,G, | F,2 F,2 F,2 F,2 | C,2 C,2 C,2 C,2 | F,2 F,2 F,2 A,B, | C4 C,4 | %21
w: won- * * drous|love, And *|each re- peat their|loud a- men, And|each re- peat their *|loud a-|
 F,8 |] %22
w: men.|

